X:1     %Music
T:Coulter's Candy
T:Sugar Candy
B:Singing Together, Autumn 1972, BBC Publications
F:http://www.folkinfo.org/songs
M:4/4     %Meter
L:1/8     %
K:F
F2 |FF A2 c2 c2 |d2 d2 c3 A |FF A2 c2 c2 | B2 A2 G4 |
w:There was a wee las-sie aw-fy thin, A bun-dle o' bones wrapped up in skin, 
F2 A2 cc c2 |d2 dd c3 A |G2 A2 c2 A2 | G4 F4 |
w:Now she's get-tin' a wee dou-ble chin, Wi' eat-in' su-gar can-dy. 
F2 A2 c2 c2 |dd dd c4 |F2 A2 c2 c2 | B2 A2 G4 |
w:Al-ly, bal-ly, al-ly bal-ly bee, Sit-tin' on your mam-my's knee.
F2 A2 c2 B2 |dd d2 c3 A |F2 A2 c2 A2 | G4 F2 z2 |]
w: Greet-in' for a-no-ther baw-bee To buy some su-gar can-dy. 